resources/images/settings.svg

<?xml version="1.0" encoding="UTF-8"?>
<svg width="24px" height="24px" viewBox="0 0 24 24" version="1.1" xmlns="http://www.w3.org/2000/svg" xmlns:xlink="http://www.w3.org/1999/xlink">
    <!-- Generator: sketchtool 55.2 (78181) - https://sketchapp.com -->
    <title>Settings</title>
    <desc>Created with sketchtool.</desc>
    <g id="desktop" stroke="none" stroke-width="1" fill="none" fill-rule="evenodd">
        <g id="homepage" transform="translate(-715.000000, -245.000000)" fill="#B4C8F4" fill-rule="nonzero">
            <g id="MY-ACCOUNT" transform="translate(699.000000, 88.000000)">
                <g id="dropdown-item-Buttons-/-dropdown-item-/-default" transform="translate(0.000000, 145.000000)">
                    <g id="Group" transform="translate(16.000000, 8.000000)">
                        <g id="Icons-/-dropdown-/-collections-Icons-/-dropdown-/-settings" transform="translate(0.000000, 4.000000)">
                            <g id="Group">
                                <path d="M21.3375796,10.9514819 C21.2254777,10.3007684 21.1133758,9.65005488 21.0012739,9.00197585 C20.9681529,9.27332602 20.9324841,9.54204171 20.8993631,9.81339188 C21.4216561,9.10208562 21.9414013,8.3881449 22.4636943,7.67683864 C22.5375796,7.57672887 22.611465,7.4766191 22.6853503,7.37387486 C22.7184713,7.2895719 22.7541401,7.20526894 22.7872611,7.12096597 C22.8305732,6.98133919 22.8356688,6.8417124 22.8050955,6.69945115 C22.7719745,6.4518112 22.6751592,6.2884742 22.5248408,6.0935236 C21.755414,5.10559824 20.988535,4.11767289 20.2191083,3.12974753 C20.1121019,2.99275521 20.0050955,2.85312843 19.8980892,2.71613611 C19.6942675,2.45532382 19.2076433,2.32096597 18.9070064,2.44478595 C18.0713376,2.78990121 17.233121,3.13765093 16.3974522,3.48276619 C16.2802548,3.53282108 16.1605096,3.58024149 16.0433121,3.63029638 C16.3057325,3.66454446 16.5656051,3.701427 16.8280255,3.73567508 C16.3566879,3.48013172 15.8853503,3.22458836 15.4140127,2.96904501 C15.5694268,3.17980241 15.7273885,3.38792536 15.8828025,3.59868277 C15.6458599,2.7740944 15.411465,1.9521405 15.1745223,1.12755214 C15.1414013,1.01163557 15.1082803,0.893084523 15.0751592,0.777167947 C14.9477707,0.33194292 14.5452229,0.00263446762 14.0917197,0.00263446762 C12.8713376,0.00263446762 11.6509554,0.00263446762 10.4305732,0.00263446762 C10.2598726,0.00263446762 10.0866242,0.00263446762 9.91592357,0.00263446762 C9.45987261,0.00263446762 9.05987261,0.33194292 8.93248408,0.777167947 C8.6955414,1.60175631 8.4611465,2.42371021 8.22420382,3.24829857 C8.1910828,3.36421515 8.15796178,3.48276619 8.12484076,3.59868277 C8.28025478,3.38792536 8.43821656,3.17980241 8.59363057,2.96904501 C8.12229299,3.22458836 7.65095541,3.48013172 7.17961783,3.73567508 C7.44203822,3.701427 7.70191083,3.66454446 7.96433121,3.63029638 C7.12866242,3.28518112 6.29044586,2.93743139 5.45477707,2.59231614 C5.33757962,2.54226125 5.21783439,2.49484083 5.10063694,2.44478595 C4.8,2.32096597 4.31082803,2.45532382 4.10955414,2.71613611 C3.34012739,3.70406147 2.57324841,4.69198683 1.80382166,5.67991218 C1.69681529,5.8169045 1.58980892,5.95653128 1.48280255,6.0935236 C1.33757962,6.2805708 1.23312102,6.45444566 1.20254777,6.69945115 C1.17452229,6.91020856 1.19235669,7.19473106 1.32229299,7.3712404 C1.84458599,8.08254665 2.36433121,8.79648738 2.8866242,9.50779363 C2.96050955,9.6079034 3.0343949,9.70801317 3.10828025,9.81075741 C3.07515924,9.53940724 3.03949045,9.27069155 3.00636943,8.99934138 C2.89426752,9.65005488 2.78216561,10.3007684 2.67006369,10.9488474 C2.82547771,10.73809 2.98343949,10.5299671 3.1388535,10.3192097 C2.37197452,10.7170143 1.60254777,11.1121844 0.83566879,11.509989 C0.72866242,11.5653128 0.61910828,11.6206367 0.512101911,11.678595 C0.318471338,11.7787047 0.175796178,11.9841932 0.0942675159,12.1817783 C0.0025477707,12.4083425 -0.0050955414,12.6243688 0.0433121019,12.8667398 C0.272611465,14.0417124 0.50955414,15.2140505 0.746496815,16.3837541 C0.779617834,16.5470911 0.812738854,16.7104281 0.845859873,16.8763996 C0.889171975,17.0950604 1.04458599,17.2926454 1.21019108,17.4243688 C1.39872611,17.5745335 1.58726115,17.6272228 1.82675159,17.650933 C2.71082803,17.7326015 3.59235669,17.81427 4.47643312,17.8933041 C4.60382166,17.9038419 4.73121019,17.9170143 4.85859873,17.9275521 C4.5656051,17.7536773 4.27261146,17.5798024 3.97961783,17.4059276 C4.30573248,17.8695939 4.63184713,18.3358946 4.95541401,18.7995609 C4.90955414,18.6230516 4.86369427,18.4439078 4.81528662,18.2673985 C4.71592357,19.1104281 4.61910828,19.9560922 4.51974522,20.7991218 C4.50700637,20.9176729 4.49171975,21.0388584 4.47898089,21.1574094 C4.44076433,21.4919868 4.6955414,21.9240395 4.98343949,22.0663008 C6.03566879,22.5852909 7.08789809,23.104281 8.14012739,23.6232711 C8.29044586,23.6970362 8.43821656,23.7708013 8.58853503,23.8445664 C8.8,23.9499451 9.00127389,24.0026345 9.23821656,23.9683864 C9.45477707,23.9394072 9.66878981,23.8472009 9.82420382,23.678595 C10.3847134,23.0700329 10.9452229,22.4588364 11.5031847,21.8502744 C11.5821656,21.763337 11.6636943,21.6763996 11.7426752,21.5894621 C11.5031847,21.6922064 11.2611465,21.7949506 11.0216561,21.8976948 C11.6738854,21.8976948 12.3235669,21.8976948 12.9757962,21.8976948 C12.7363057,21.7949506 12.4942675,21.6922064 12.2547771,21.5894621 C12.8152866,22.1980241 13.3757962,22.8092206 13.933758,23.4177827 C14.0127389,23.5047201 14.0942675,23.5916575 14.1732484,23.678595 C14.3261146,23.8472009 14.5426752,23.9394072 14.7592357,23.9683864 C14.9987261,24.0026345 15.1898089,23.9499451 15.4089172,23.8445664 C16.4611465,23.3255763 17.5133758,22.8065862 18.5656051,22.287596 C18.7159236,22.213831 18.8636943,22.1400659 19.0140127,22.0663008 C19.3019108,21.9240395 19.5566879,21.4893524 19.5184713,21.1574094 C19.4191083,20.3143798 19.322293,19.4687157 19.2229299,18.6256861 C19.2101911,18.507135 19.1949045,18.3859495 19.1821656,18.2673985 C19.1363057,18.4439078 19.0904459,18.6230516 19.0420382,18.7995609 C19.3681529,18.3358946 19.6942675,17.8695939 20.0203822,17.4059276 C19.7273885,17.5798024 19.4343949,17.7536773 19.1414013,17.9275521 C20.0254777,17.8458836 20.9070064,17.7642151 21.7910828,17.6851811 C21.9184713,17.6746432 22.0458599,17.6614709 22.1732484,17.650933 C22.4050955,17.6298573 22.6012739,17.5745335 22.7898089,17.4243688 C22.955414,17.2926454 23.110828,17.0950604 23.1541401,16.8763996 C23.3910828,15.7040615 23.6280255,14.5343578 23.8624204,13.3620198 C23.8955414,13.1986828 23.9286624,13.0353458 23.9617834,12.8693743 C24.0101911,12.6322722 24.0025478,12.4109769 23.910828,12.1844127 C23.8292994,11.9868277 23.6866242,11.7813392 23.4929936,11.6812294 C22.7261146,11.2834248 21.9566879,10.8882547 21.1898089,10.4904501 C21.0828025,10.4351262 20.9732484,10.3798024 20.866242,10.3218441 C20.6191083,10.1953897 20.3541401,10.1374314 20.0815287,10.2164654 C19.844586,10.2849616 19.5898089,10.4720088 19.4726115,10.7012075 C19.3477707,10.946213 19.2840764,11.2412733 19.3707006,11.5126235 C19.4496815,11.7628979 19.6025478,12.0210757 19.8394904,12.1422613 C20.6063694,12.5400659 21.3757962,12.935236 22.1426752,13.3330406 C22.2496815,13.3883644 22.3592357,13.4436883 22.466242,13.5016465 C22.310828,13.1038419 22.1528662,12.7086718 21.9974522,12.3108672 C21.7605096,13.4832053 21.5235669,14.6529089 21.289172,15.825247 C21.256051,15.988584 21.2229299,16.151921 21.1898089,16.3178924 C21.5184713,16.0597146 21.844586,15.8015368 22.1732484,15.5433589 C21.1643312,15.6355653 20.155414,15.7198683 19.1464968,15.8226125 C19.0522293,15.8331504 19.0980892,15.7962678 18.8713376,15.8594951 C18.5936306,15.9385291 18.4254777,16.1150384 18.2598726,16.3442371 C18.2420382,16.3705818 18.2242038,16.394292 18.2063694,16.4206367 C18.1248408,16.5365532 18.0433121,16.6524698 17.9617834,16.7683864 C17.7656051,17.04764 17.5694268,17.3268935 17.3757962,17.6061471 C17.2382166,17.8010977 17.1261146,18.0039517 17.1464968,18.2700329 C17.1490446,18.3200878 17.1592357,18.3701427 17.1643312,18.4201976 C17.1974522,18.715258 17.233121,19.0076839 17.266242,19.3027442 C17.3375796,19.9218441 17.411465,20.540944 17.4828025,21.1600439 C17.6509554,20.8570801 17.8191083,20.5541164 17.9872611,20.2511526 C16.9350318,20.7701427 15.8828025,21.2891328 14.8305732,21.8081229 C14.6802548,21.881888 14.5324841,21.9556531 14.3821656,22.0294182 C14.7949045,22.084742 15.2050955,22.1400659 15.6178344,22.1953897 C15.2636943,21.8081229 14.9070064,21.4234907 14.5528662,21.0362239 C14.3312102,20.7964874 14.1121019,20.5567508 13.8904459,20.3170143 C13.8318471,20.253787 13.7757962,20.1905598 13.7171975,20.1273326 C13.5082803,19.9060373 13.2382166,19.8006586 12.9426752,19.7953897 C12.3490446,19.7874863 11.755414,19.7953897 11.1617834,19.7953897 C10.8458599,19.7953897 10.5426752,19.8559824 10.3006369,20.1036224 C10.2675159,20.135236 10.2394904,20.1721186 10.2063694,20.2063666 C10.0127389,20.417124 9.81910828,20.6278814 9.62292994,20.8412733 C9.20764331,21.2917673 8.79235669,21.7448957 8.37961783,22.1953897 C8.79235669,22.1400659 9.20254777,22.084742 9.61528662,22.0294182 C8.56305732,21.5104281 7.51082803,20.991438 6.45859873,20.4724479 C6.30828025,20.3986828 6.16050955,20.3249177 6.01019108,20.2511526 C6.17834395,20.5541164 6.34649682,20.8570801 6.51464968,21.1600439 C6.57579618,20.6357849 6.63694268,20.1088913 6.69808917,19.5846323 C6.73630573,19.2500549 6.77707006,18.918112 6.81528662,18.5835346 C6.85095541,18.2700329 6.89426752,18.0144896 6.6955414,17.7115258 C6.38980892,17.250494 6.0611465,16.8 5.74012739,16.3468716 C5.57452229,16.1150384 5.40636943,15.9385291 5.12866242,15.8594951 C4.90191083,15.7962678 4.9477707,15.8305159 4.85350318,15.8226125 C4.83312102,15.819978 4.81528662,15.819978 4.79490446,15.8173436 C4.70573248,15.8094402 4.61656051,15.8015368 4.52738854,15.7936334 C4.2089172,15.7646542 3.88789809,15.7356751 3.56942675,15.7066959 C2.98853503,15.6540066 2.40764331,15.5986828 1.82675159,15.5459934 C2.15541401,15.8041712 2.48152866,16.0623491 2.81019108,16.3205269 C2.57324841,15.1481888 2.33630573,13.9784852 2.10191083,12.8061471 C2.06878981,12.6428101 2.03566879,12.4794731 2.00254777,12.3135016 C1.84713376,12.7113063 1.68917197,13.1064764 1.53375796,13.504281 C2.00509554,13.2592755 2.47898089,13.0169045 2.95031847,12.771899 C3.25605096,12.613831 3.56178344,12.4557629 3.86751592,12.2976948 C4.21146497,12.118551 4.54012739,11.960483 4.63184713,11.4968167 C4.75414013,10.8908891 4.8433121,10.2744237 4.9477707,9.66586169 C5.00127389,9.35762898 5.04458599,9.02832053 4.85859873,8.74906696 C4.82292994,8.69637761 4.78471338,8.64632272 4.74649682,8.59626784 C4.56305732,8.34599341 4.37961783,8.09571899 4.19617834,7.8428101 C3.82165605,7.33172338 3.44968153,6.82327113 3.07515924,6.31218441 C3.02165605,6.73896817 2.96815287,7.16311745 2.91464968,7.58990121 C3.68407643,6.60197585 4.45095541,5.61405049 5.22038217,4.62612514 C5.32738854,4.48913282 5.4343949,4.34950604 5.54140127,4.21251372 C5.21019108,4.30208562 4.88152866,4.39429199 4.55031847,4.48386389 C5.00382166,4.67091109 5.45732484,4.85795829 5.91082803,5.04763996 C6.40764331,5.25312843 6.89936306,5.47969265 7.40382166,5.66410538 C7.8343949,5.82217344 8.26242038,5.52711306 8.63184713,5.32689352 C8.92229299,5.16882547 9.21528662,5.01075741 9.50573248,4.85268935 C9.78089172,4.70515917 9.98471338,4.48122942 10.0815287,4.16245884 C10.0993631,4.10713502 10.1121019,4.0518112 10.1299363,3.99648738 C10.2140127,3.70669594 10.2955414,3.4169045 10.3796178,3.12974753 C10.5503185,2.53435785 10.7210191,1.93896817 10.8917197,1.34621295 C10.5630573,1.60439078 10.2369427,1.86256861 9.90828025,2.12074643 C11.1286624,2.12074643 12.3490446,2.12074643 13.5694268,2.12074643 C13.7401274,2.12074643 13.9133758,2.12074643 14.0840764,2.12074643 C13.755414,1.86256861 13.4292994,1.60439078 13.1006369,1.34621295 C13.2458599,1.84939627 13.388535,2.35257958 13.533758,2.85839737 C13.6280255,3.18507135 13.7197452,3.50911087 13.8140127,3.83578485 C13.9235669,4.21514819 14.0101911,4.58397366 14.3898089,4.80526894 C14.8484076,5.07135016 15.322293,5.31899012 15.7910828,5.56399561 C16.056051,5.70362239 16.3694268,5.75894621 16.6496815,5.64302964 C16.7388535,5.60614709 16.8280255,5.56926454 16.9171975,5.532382 C17.2178344,5.40856202 17.5210191,5.28210757 17.8216561,5.1582876 C18.3617834,4.93435785 18.9019108,4.7104281 19.4420382,4.48913282 C19.110828,4.39956092 18.7821656,4.30735456 18.4509554,4.21778266 C19.2203822,5.20570801 19.9872611,6.19363337 20.7566879,7.18155873 C20.8636943,7.31855104 20.9707006,7.45817783 21.077707,7.59517014 C21.0242038,7.16838639 20.9707006,6.7442371 20.9171975,6.31745335 C20.4917197,6.89967069 20.0636943,7.48188804 19.6382166,8.06410538 C19.4726115,8.29066959 19.2866242,8.51196487 19.1363057,8.74906696 C18.9452229,9.05203074 19.0012739,9.4050494 19.0573248,9.73699232 C19.0929936,9.94248079 19.1286624,10.1453348 19.1643312,10.3508233 C19.2305732,10.7407245 19.2993631,11.1306257 19.3656051,11.5178924 C19.4089172,11.7628979 19.633121,12.0263447 19.8343949,12.1475302 C20.0535032,12.2792536 20.3745223,12.3345774 20.6191083,12.2529089 C20.866242,12.1712404 21.1031847,12.0131723 21.2280255,11.7681668 C21.3681529,11.4994512 21.3859873,11.2439078 21.3375796,10.9514819 Z" id="Path"></path>
                                <path d="M12,14.8636663 C11.8343949,14.8636663 11.6713376,14.8531284 11.5057325,14.8294182 C11.5949045,14.8425906 11.6866242,14.8557629 11.7757962,14.8663008 C11.4343949,14.8188804 11.1031847,14.726674 10.7872611,14.5870472 C10.8687898,14.6212953 10.9503185,14.6581778 11.0318471,14.6924259 C10.733758,14.5607025 10.4535032,14.3894621 10.1961783,14.1866081 C10.2649682,14.2419319 10.333758,14.2972558 10.4025478,14.3525796 C10.1477707,14.1470911 9.92101911,13.9126235 9.72229299,13.6491767 C9.77579618,13.7203074 9.82929936,13.791438 9.88280255,13.8625686 C9.68407643,13.5964874 9.52101911,13.3066959 9.39363057,12.9984632 C9.42675159,13.0827662 9.46242038,13.1670692 9.4955414,13.2513721 C9.36305732,12.9246981 9.27133758,12.5822173 9.22547771,12.2291987 C9.23821656,12.321405 9.25095541,12.4162459 9.2611465,12.5084523 C9.22038217,12.1686059 9.22038217,11.8261251 9.2611465,11.4862788 C9.24840764,11.5784852 9.23566879,11.673326 9.22547771,11.7655324 C9.27133758,11.4125137 9.36050955,11.0700329 9.4955414,10.7433589 C9.46242038,10.8276619 9.42675159,10.9119649 9.39363057,10.9962678 C9.52101911,10.6880351 9.6866242,10.3982437 9.88280255,10.1321625 C9.82929936,10.2032931 9.77579618,10.2744237 9.72229299,10.3455543 C9.92101911,10.0821076 10.1477707,9.84763996 10.4025478,9.64215148 C10.333758,9.6974753 10.2649682,9.75279912 10.1961783,9.80812294 C10.4535032,9.60263447 10.733758,9.43402854 11.0318471,9.30230516 C10.9503185,9.33655324 10.8687898,9.37343578 10.7872611,9.40768386 C11.1031847,9.27069155 11.4343949,9.17585071 11.7757962,9.1284303 C11.6866242,9.14160263 11.5949045,9.15477497 11.5057325,9.16531284 C11.8343949,9.12316136 12.1656051,9.12316136 12.4942675,9.16531284 C12.4050955,9.1521405 12.3133758,9.13896817 12.2242038,9.1284303 C12.5656051,9.17585071 12.8968153,9.26805708 13.2127389,9.40768386 C13.1312102,9.37343578 13.0496815,9.33655324 12.9681529,9.30230516 C13.266242,9.43402854 13.5464968,9.60526894 13.8038217,9.80812294 C13.7350318,9.75279912 13.666242,9.6974753 13.5974522,9.64215148 C13.8522293,9.84763996 14.0789809,10.0821076 14.277707,10.3455543 C14.2242038,10.2744237 14.1707006,10.2032931 14.1171975,10.1321625 C14.3159236,10.3982437 14.4789809,10.6880351 14.6063694,10.9962678 C14.5732484,10.9119649 14.5375796,10.8276619 14.5044586,10.7433589 C14.6369427,11.0700329 14.7286624,11.4125137 14.7745223,11.7655324 C14.7617834,11.673326 14.7490446,11.5784852 14.7388535,11.4862788 C14.7796178,11.8261251 14.7796178,12.1686059 14.7388535,12.5084523 C14.7515924,12.4162459 14.7643312,12.321405 14.7745223,12.2291987 C14.7286624,12.5822173 14.6394904,12.9246981 14.5044586,13.2513721 C14.5375796,13.1670692 14.5732484,13.0827662 14.6063694,12.9984632 C14.4789809,13.3066959 14.3133758,13.5964874 14.1171975,13.8625686 C14.1707006,13.791438 14.2242038,13.7203074 14.277707,13.6491767 C14.0789809,13.9126235 13.8522293,14.1470911 13.5974522,14.3525796 C13.666242,14.2972558 13.7350318,14.2419319 13.8038217,14.1866081 C13.5464968,14.3920966 13.266242,14.5607025 12.9681529,14.6924259 C13.0496815,14.6581778 13.1312102,14.6212953 13.2127389,14.5870472 C12.8968153,14.7240395 12.5656051,14.8188804 12.2242038,14.8663008 C12.3133758,14.8531284 12.4050955,14.8399561 12.4942675,14.8294182 C12.3286624,14.850494 12.1656051,14.8610318 12,14.8636663 C11.4675159,14.8663008 10.955414,15.3457739 10.9808917,15.9174533 C11.0063694,16.4864984 11.4292994,16.9738749 12,16.971251 C12.9579618,16.9659715 13.943949,16.6735456 14.7261146,16.0913282 C14.9452229,15.9279912 15.1592357,15.7567508 15.3528662,15.5618002 C15.5490446,15.3668496 15.7146497,15.1481888 15.877707,14.9268935 C16.1681529,14.5343578 16.3745223,14.0970362 16.5401274,13.6333699 C17.2050955,11.7655324 16.6089172,9.47881449 15.1159236,8.2169045 C14.9070064,8.04039517 14.6904459,7.86915477 14.4585987,7.72425906 C14.2242038,7.57936334 13.9745223,7.4687157 13.7197452,7.36070252 C13.266242,7.16838639 12.7872611,7.07618002 12.2980892,7.03666301 C11.3426752,6.95762898 10.3388535,7.22107574 9.52101911,7.73216246 C8.73121019,8.22744237 8.04585987,8.97563117 7.6611465,9.85027442 C7.54904459,10.1084523 7.44203822,10.371899 7.3656051,10.6458836 C7.2866242,10.9330406 7.24840764,11.2254665 7.21273885,11.5205269 C7.15414013,12.0263447 7.19745223,12.5374314 7.29171975,13.0353458 C7.47261146,13.9863886 7.97452229,14.9031833 8.6522293,15.5723381 C9.32738854,16.2414929 10.211465,16.7367728 11.1414013,16.884303 C11.4242038,16.9290889 11.7070064,16.9659715 11.9923567,16.9686059 C12.5248408,16.971251 13.0369427,16.4812294 13.011465,15.9148189 C12.9936306,15.3431394 12.5707006,14.8663008 12,14.8636663 Z" id="Path"></path>
                            </g>
                        </g>
                    </g>
                </g>
            </g>
        </g>
    </g>
</svg>

<svg width="24" height="24" xmlns="http://www.w3.org/2000/svg"><g fill="#B4C8F4" fill-rule="nonzero"><path d="M21.338 10.951L21 9.002c-.033.271-.069.54-.102.811.523-.71 1.042-1.425 1.565-2.136l.221-.303c.033-.084.07-.169.102-.253a.816.816 0 00.018-.422c-.033-.247-.13-.41-.28-.605-.77-.988-1.536-1.976-2.306-2.964l-.32-.414c-.205-.26-.691-.395-.992-.271l-2.51 1.038c-.117.05-.236.097-.354.147l.785.106-1.414-.767c.155.21.313.419.469.63l-.708-2.471-.1-.35c-.127-.446-.53-.775-.983-.775H9.916c-.456 0-.856.329-.984.774-.236.825-.47 1.647-.708 2.471-.033.116-.066.235-.1.35.156-.21.314-.418.47-.629l-1.414.767.784-.106-2.51-1.038c-.116-.05-.236-.097-.353-.147-.301-.124-.79.01-.991.271-.77.988-1.537 1.976-2.306 2.964l-.321.414c-.145.187-.25.36-.28.605-.028.211-.01.496.12.672.522.712 1.041 1.425 1.564 2.137l.221.303c-.033-.272-.069-.54-.102-.812l-.336 1.95c.155-.21.313-.419.469-.63-.767.398-1.536.793-2.303 1.191-.107.055-.217.11-.324.169-.194.1-.336.305-.418.503-.091.226-.1.442-.05.685.229 1.175.466 2.347.702 3.517l.1.492c.043.22.199.417.364.548.189.15.377.203.617.227.884.082 1.765.163 2.65.242.127.01.254.024.382.035l-.88-.522c.327.464.653.93.976 1.394-.045-.177-.091-.356-.14-.533-.1.843-.196 1.69-.295 2.532l-.041.358c-.038.335.217.767.504.91l3.157 1.556.449.222c.211.105.412.158.65.123a.964.964 0 00.585-.29l1.68-1.828c.078-.087.16-.174.239-.26l-.721.308h1.954l-.721-.309 1.679 1.829.24.26c.152.17.369.261.585.29.24.035.43-.018.65-.123 1.052-.52 2.104-1.038 3.157-1.557l.448-.222c.288-.142.543-.577.504-.909l-.295-2.531c-.013-.119-.028-.24-.04-.359-.047.177-.093.356-.141.533l.978-1.394-.879.522c.884-.082 1.766-.164 2.65-.243.127-.01.255-.024.382-.034.232-.021.428-.076.617-.227.165-.131.32-.329.364-.548.237-1.172.474-2.342.708-3.514l.1-.493c.048-.237.04-.458-.051-.685-.082-.197-.224-.403-.418-.503-.767-.398-1.536-.793-2.303-1.19-.107-.056-.217-.111-.324-.17-.247-.126-.512-.184-.784-.105a1.046 1.046 0 00-.61.485c-.124.245-.188.54-.101.812.079.25.232.508.468.63.767.397 1.537.792 2.304 1.19.107.055.216.11.323.169-.155-.398-.313-.793-.469-1.191-.236 1.172-.473 2.342-.708 3.514l-.1.493c.33-.258.656-.516.984-.775-1.009.093-2.018.177-3.027.28-.094.01-.048-.027-.275.036-.277.08-.446.256-.611.485l-.054.077-.244.347c-.196.28-.393.559-.586.838-.138.195-.25.398-.23.664.003.05.013.1.018.15.033.295.07.588.102.883l.217 1.857.504-.909-3.156 1.557-.449.221 1.236.166c-.354-.387-.711-.772-1.065-1.159-.222-.24-.44-.48-.663-.719l-.173-.19a1.06 1.06 0 00-.774-.332c-.594-.008-1.188 0-1.781 0-.316 0-.62.061-.861.309-.033.031-.062.068-.095.102a2652.361 2652.361 0 01-1.826 1.99l1.235-.167-3.156-1.557-.449-.22.505.908.183-1.575c.038-.335.08-.667.117-1.001.036-.314.08-.57-.12-.872-.305-.462-.634-.912-.955-1.365-.165-.232-.334-.408-.611-.488-.227-.063-.181-.028-.275-.036l-.06-.006-.267-.023c-.318-.03-.64-.058-.958-.087l-1.742-.161.983.775c-.237-1.173-.474-2.343-.708-3.515l-.1-.492c-.155.397-.313.792-.468 1.19.471-.245.945-.487 1.416-.732l.918-.474c.343-.18.672-.338.764-.801.122-.606.211-1.223.316-1.831.053-.308.097-.638-.09-.917a186.75 186.75 0 01-.662-.906l-1.12-1.53-.161 1.277c.77-.988 1.536-1.976 2.305-2.964l.321-.413-.99.27c.453.188.906.375 1.36.565.497.205.988.432 1.493.616.43.158.858-.137 1.228-.337l.874-.474c.275-.148.479-.372.576-.69.017-.056.03-.111.048-.167.084-.29.166-.58.25-.866.17-.596.341-1.191.512-1.784l-.984.775h4.176c-.329-.258-.655-.517-.983-.775l.433 1.512.28.978c.11.38.196.748.576.97.458.265.932.513 1.401.758.265.14.578.195.859.079l.267-.11.905-.375c.54-.224 1.08-.448 1.62-.669-.331-.09-.66-.182-.991-.271.77.988 1.536 1.976 2.306 2.964l.32.413-.16-1.278c-.425.583-.853 1.165-1.279 1.747-.165.227-.351.448-.502.685-.19.303-.135.656-.079.988l.107.614.202 1.167c.043.245.267.508.468.63.22.131.54.187.785.105.247-.082.484-.24.609-.485.14-.269.158-.524.11-.817z"/><path d="M12 14.864c-.166 0-.329-.01-.494-.035.089.014.18.027.27.037a3.695 3.695 0 01-.989-.279c.082.034.163.071.245.105a3.896 3.896 0 01-.836-.505l.207.166a3.976 3.976 0 01-.68-.704l.16.214a3.983 3.983 0 01-.49-.865l.103.253a4.135 4.135 0 01-.27-1.022c.012.092.025.187.035.28-.04-.34-.04-.683 0-1.023-.013.092-.025.187-.036.28.046-.353.136-.696.27-1.023l-.101.253c.127-.308.293-.598.489-.864l-.16.214c.198-.264.425-.498.68-.704l-.207.166c.258-.205.538-.374.836-.506l-.245.106c.316-.137.647-.232.989-.28-.09.014-.181.027-.27.037a3.88 3.88 0 01.988 0 9.488 9.488 0 00-.27-.037c.342.048.673.14.989.28l-.245-.106c.298.132.578.303.836.506l-.207-.166c.255.206.482.44.68.704l-.16-.214c.199.266.362.556.49.864-.034-.084-.07-.168-.103-.253.133.327.225.67.27 1.023a10.454 10.454 0 01-.035-.28c.04.34.04.683 0 1.022.013-.092.025-.187.036-.279a4.026 4.026 0 01-.27 1.022l.101-.253a4.091 4.091 0 01-.489.865l.16-.214a3.976 3.976 0 01-.68.704l.207-.166a3.793 3.793 0 01-.836.505c.082-.034.163-.07.245-.105a3.794 3.794 0 01-.989.28c.09-.014.181-.027.27-.038a4.451 4.451 0 01-.494.035c-.532.002-1.045.482-1.02 1.053.026.57.45 1.057 1.02 1.054.958-.005 1.944-.297 2.726-.88.22-.163.433-.334.627-.53.196-.194.362-.413.525-.634.29-.393.497-.83.662-1.294.665-1.867.069-4.154-1.424-5.416a5.767 5.767 0 00-.657-.493 5.378 5.378 0 00-.74-.363 4.546 4.546 0 00-1.42-.324c-.956-.08-1.96.184-2.778.695-.79.495-1.475 1.244-1.86 2.118-.112.258-.219.522-.295.796-.08.287-.118.58-.153.875a5.04 5.04 0 00.079 1.514c.18.951.683 1.868 1.36 2.537.675.67 1.56 1.165 2.49 1.312.282.045.565.082.85.085.533.002 1.045-.488 1.02-1.054-.018-.572-.441-1.049-1.012-1.051z"/></g></svg>
